X:0393
T:A Friend in Need.
M:6/8
L:1/8
Q:3/8=120
I: || ::
Z:Jack Campin * www.campin.me.uk * 2009
K:D
A|d2f afd|e2f g2b|a2g fed|cde A2A|
  d2f e2g|f2d g2b|agf edc|d3  d2||
f|afd afd|A2d f2a|g2f e2d|cec A2A|
  dfa afd|ege g2b|agf edc|d3  d2:|
<end>
<start>
